X:1
T:When We Take a Trip to the Moon
T:When We Take a Trip to the Moon
T:HARRY APPEL.
T:ROB'T J. MOORE.
T:1905
T:1905
T:1905
T:1905
C:HARRY APPEL.
Z:ROB'T J. MOORE.
Z:1905
%%score 1 { 2 | 3 }
L:1/8
M:3/4
K:C
V:1 treble nm="Voice"
V:2 treble nm="Piano"
V:3 bass 
V:1
"_Tempo di Valse." z2 | z6 | z6 | z6 | z6 | z6 | z6 | z6 | z6 |] G2 | c2 B2 A2 | G2 A2 B2 | %12
w: |||||||||Sweet-|heart, I am|try- ing to|
w: ||||||||||||
w: |||||||||Far|o- ver the|top of sky-|
 c2 B2 A2 | G4 ^G2 | A4 B2 | d4 c2 | (F6 | F2) z2 F2 | c2 B2 A2 | F2 G2 A2 | c2 B2 A2 | F4 G^G | %22
w: find the best|way for|you and|I to|spoon;....|. The|cit- ies are|crowd- ed and|there's too much|noise, So I|
w: ||||||||||
w: scrap- er, swee-|heart, we'll|tell love's|sweet- est|tale;.....|* I|wish we were|read- y this|mo- ment to|start, For oh,|
 A2 A2 ^A2 | B2 c2 d2 | (G6 | G2) z2 G2 | c2 B2 A2 | G2 A2 B2 | c2 B2 A2 | G4 G2 | c2 d2 G2 | %31
w: thought of a|trip to the|moon.....|. I've|hit on a|plan like a|sen- si- ble|man I'm|build- ing a|
w: |||||||||
w: I am so|an- xious to|sail,.....|. At|Lu- na we'll|wink and at|old Sol will|blink, as|we flouat by|
 c2 d3 c | A6 | A2 z2 AB | c2 B2 A2 | G4 AB | c2 B2 A2 | G4 G2 | A2 B2 c2 | d2 ^G2 A2 | (d6 | %41
w: lit- tle bal-|loon;.....|. How we'll|make peo- ple|stare, as we|sail through the|air, When|we take a|trip to the|moon.....|
w: ||||||||||
w: in our bal-|loon;.....|. Each *|oth- er we'll|teaste and we'll|hug and we'll|squeeze, When|we take a|trip to the|moon.....|
 d2) z2 |]"^CHORUS." G2 |: c2 B2 A2 | B2 G3 ^G | (A6 | A2) z2 G2 | c2 B2 A2 | B2 G3 A | (B6 | %50
w: .|When|we take a|trip to the|moon....|* We'll|war- ble to|love's sweet est|tune:....|
w: |||||||||
w: .|||||||||
 B2) z2 F2 | F2 G2 A2 | B4 A2 | G2 A2 B2 | c4 B2 | A2 B2 c2 | d2 ^G2 A2 | (d6 | d2) z2 G2 | %59
w: * No|more crowd- ed|cars, pa-|pas or ma-|mas While|we're sail- ing|past twink ling|stars;....|* When|
w: |||||||||
w: |||||||||
 c2 B2 A2 | B2 A3 ^G | (A6 | A2) z2 A2 | A2 _B2 A2 | G2 F2 E2 | (A6 | A2) z2 A2 | A2 ^G2 A2 | %68
w: we take a|trip to the|moon...|* I|hope, sweet heart|it will be|soon,...|* We'll|spoon night and|
w: |||||||||
w: |||||||||
 d4 cA | A2 ^G2 A2 | e4 e_e | d4 A2 | B2 c2 d2 |1 c2 z2 z2 | z2 z2 G2 :|2 c6 | c2 z2 z2 |] %77
w: noon in our|lit- tle bal-|loon, When we|take a|trip to the|moon.|When|moon....||
w: |||||||||
w: |||||||||
V:2
!f! g2 | [cec']2 [Beb]2 [Ada]2 | [Gef]2 [Afa]2 [Bfb]2 | [cec']2 [Beb]2 [Aea]2 | [Geg]4 [^G^g]2 | %5
 [A^fa]2 [B=fb]2 [cfc']2 | [dfd']2 [ege']2 [dfd']2 | ([cec']6 | [cec']2) z2 z2 |]!p! G2 | %10
 [Ec]2 [EB]2 [EA]2 | [FG]2 [FA]2 [FB]2 | [Ec]2 [EB]2 [EA]2 | [EG]4 ^G2 |!<(! ([EGA]4 [EGB]2!<)! | %15
 d2 [DG]2 [C^Fc]2) | (F2 (B,^A, B,A,) | [B,F]4) F2 | [Fc]2 [FB]2 [FA]2 | F2 [FG]2 [FA]2 | %20
 [Fc]2 [FB]2 [FA]2 | F4 G^G | A2 [FA]2 [F^A]2 | [FB]2 [Fc]2 [Fd]2 | (G2 ([CE]2 [^A,E]2) | %25
 [B,EF]4) G2 | [Ec]2 [EB]2 [EA]2 | [FG]2 [FA]2 [FB]2 | [Ec]2 [EB]2 [EA]2 | [EG]4 G2 | %30
 [E_Bc]2 [EBd]2 [EG]2 | [E_Bc]2 [E=Bd]3 c | (A2 [A,CF]2 [A,^CG]2 | c2) [A,DF]2 AB | c2 B2 A2 | %35
 G4 AB | c2 B2 A2 | G4 G2 | [^FA]2 [FB]2 [Fc]2 |!<(! [^Fd]2 [F^G]2!<)! [FA]2 | ([FBd]6 | %41
 [FBd]2) .G.G |]!mp!!f! G2 |: [CEc]2 [CEB]2 [CEA]2 | [CEB]2 [CEG]2 [CE]^G | G2 [CE]2 [CE]2 | %46
 A2 [CE]2 [CEG]2 | [CEc]2 [CEB]2 [CEA]2 | B2 [CF]2 C[^FA] | (B2 [B,^FG]2 [B,FG]2 | B2) [B,FG]2 F2 | %51
 ([DF]2 [EG]2 [FA]2 | [Ec]4 [^DA]2) | ([EG]2 [EGA]2 [EGB]2 | [EAc]4) [EGB]2 | [^FA]2 [FB]2 [Fc]2 | %56
 [^Fd]2 [^GA]2 [FA]2 | [FBd]2 .G.G G2 |!>(! [B,FG]4 G2!>)! |!mp! [CEc]2 [CEB]2 [CEA]2 | %60
 [CEB]2 ([CEG]2 [CE]^A | (A2) [CE]2 [CE]2 | A2) [CE]2 A2 | A2 _B2 A2 | G2 F2 E2 | %65
 (A2 [A,DF]2 [A,^CG]2 | [A,DFA]4) A2 | A2 ^G2 A2 | d4 cA | G2 ^F2 G2 | !fermata![Gce]4 (ee | %71
 [^Fd]4) A2 | [^FB]2 [Fc]2 [Fd]2 |1 !>![Ec]2!f! !>!B2 !>!_B2 | !>!A2 !>!_A2 !>!G2 :|2 ([EGc]6 | %76
 [cegc']) z z2 z2 |] %77
V:3
 z2 | C,2 [G,CE]2 [G,CE]2 | C,2 [G,B,F]2 [G,B,F]2 | C,2 [G,CE]2 [G,CE]2 | C,2 [G,CE]2 z2 | %5
 D,2 [^F,C]2 [F,C]2 | G,,2 [F,G,B,]2 [F,G,B,]2 | [C,C]2 [^F,,^F,]2 [G,,G,]2 | [C,,B,,]2 z2 z2 |] %9
 z2 | C,2 [G,C]2 [G,C]2 | C,2 [G,B,]2 [G,B,]2 | C,2 [G,C]2 [G,C]2 | C,2 [G,C]2 z2 | C,2 G,2 G,2 | %15
 (E,2 G,2 [_E,A,]2) | D,2 [F,G,]2 [F,G,]2 | G,,2 [F,G,]2 z2 | D,2 [F,G,B,]2 [F,G,B,]2 | %19
 G,,2 [F,G,B,]2 [F,G,B,]2 | D,2 [F,G,B,]2 [F,G,B,]2 | G,,2 [F,G,B,]2 z2 | D,2 [F,G,B,]2 [F,G,B,]2 | %23
 G,,2 [G,A,]2 [G,B,]2 | (C,4 ^C,2 | D,2) G,,2 z2 | C,2 [G,C]2 [G,C]2 | C,2 [G,B,]2 [G,B,]2 | %28
 C,2 [G,C]2 [G,C]2 | E,2 [G,C]2 z2 | G,2 [_B,C]2 [B,C]2 | C,2 [G,_B,C]2 [G,B,C]2 | (F,4 E,2 | %33
 D,4) z2 | ^F,2 [C^D]2 [CD]2 | G,2 [CE]2 [CE]2 | ^F,2 [C^D]2 [CD]2 | G,2 [CE]2 z2 | %38
 D,2 [^F,C]2 [F,C]2 | D,2 [^F,C]2 [F,C]2 | [G,,G,]2 [B,,B,]2 [A,,A,]2 | [G,,G,]2 [F,,F,]2 |] %42
 [D,,D,]2 |: [C,,C,]2 G,2 G,2 | G,,2 (G,3 ^F, | [C,G,]6) | G,,2 z2 z2 | C,2 G,2 G,2 | %48
 E,2 (G,2 _E,G, | [C,G,]6) | G,,2 z2 z2 | D,2 [G,B,]2 [G,B,]2 | [G,,G,]2 A,2 B,2 | %53
 C,2 [E,G,C]2 [E,G,C]2 | A,,2 [E,A,C]2 [E,A,B,]2 | D,,2 [D,^F,C]2 [D,F,C]2 | %56
 D,,2 [D,^F,C]2 [D,F,C]2 | [G,,G,]2 [B,,B,]2 [A,,A,]2 | [F,,F,]2 [E,,E,]2 [D,,D,]2 | %59
 [C,,C,]2 G,2 G,2 | G,,2 (G,3 ^G, | [C,A,]4) z2 | G,,2 z2 z2 | E,2 [G,A,^C]2 [G,A,C]2 | %64
 A,,2 [F,G,^C]2 [F,G,C]2 | (F,4 E,2 | D,2) [F,D]2 z2 | F,2 [A,D]2 [A,D]2 | ^F,2 [A,CD]2 [A,C^D]2 | %69
 G,2 [CE]2 [CE]2 | A,,2 [A,^C]2 z2 | G,,2 [G,A,]2 [G,B,]2 | G,,2 [G,A,]2 [G,B,]2 |1 %73
 !>![C,G,C]2 !>![B,,B,]2 !>![_B,,_B,]2 | !>![A,,A,]2 !>![_A,,_A,]2 !>![G,,G,]2 :|2 %75
 [C,C]2 [G,,G,]2 [E,,E,]2 | [C,,C,]2 z2 z2 |] %77

